X:435
T:
R:vals
S:Ur von Baumgartens samling, Visby.
O:Gotland, Visby
M:3/4
L:1/8
K:G
Bc|d4 B2|G3 Bcd|e4 d2|A4 ^A2|B4 G2|AGFGAG|B2 B2 B2|B4 Bc|
d4 B2|G4 GA|B4 G2|E4 E2|g6|fedcBA|GFGABA|G4:|
|:D2 D2 D^CDE|F2 FEFG|A2 A^GAB|A4 G2|B3 AGF|E3 D^CB,|A,^CEGFE|D4:|
|:D2|B4 cB|d4 cB|A4 Bc|B4 G2|g4 fe|d4 B2|g4 fe|d4 Bd|
dccBBA|e4 d2|d2cBcA|G4::dd|d2 d2 d2|d2 d2 d2|f2 f2 f2|f2 f2 f2|
e2 e2 d2|a2 a2 =f2|^f6-|f6|B4 cB|d4 cB|A4 Bc|B4 G2|
g4 fe|d4 B2|g4 fe|d4 Bd|dccBBA|e4 d2|d2cBcA|G4:|

